build/flags/Nepal.svg

<svg xmlns="http://www.w3.org/2000/svg" fill="none" viewBox="0 0 28 28" focusable="false"><mask id="Nepal_svg__c" width="17.997" height="20" x="0" y="4" maskUnits="userSpaceOnUse"><g fill-rule="evenodd" filter="url(#Nepal_svg__a)"><path fill="#FFF" d="M0 6C0 4.89543 0.89543 4 2 4L2.46482 4C2.59643 4 2.7251 4.03896 2.83462 4.11197L15.0026 12.2239C16.1002 12.9557 15.5822 14.6667 14.263 14.6667L8 14.6667L15.9961 21.6632C16.9226 22.474 16.3492 24 15.1181 24L2 24C0.895428 24 0 23.1046 0 22L0 6Z"/><path stroke="#969696" stroke-linejoin="bevel" stroke-opacity="0" stroke-width="0" d="M2.46482 4C2.59643 4 2.7251 4.03896 2.83462 4.11197L15.0026 12.2239C16.1002 12.9557 15.5822 14.6667 14.263 14.6667L8 14.6667L15.9961 21.6632C16.9226 22.474 16.3492 24 15.1181 24L2 24C0.89543 24 0 23.1046 0 22L0 6C0 4.89543 0.89543 4 2 4L2.46482 4Z"/></g></mask><defs><filter id="Nepal_svg__a"><feColorMatrix values="0 0 0 0 1 0 0 0 0 1 0 0 0 0 1 0 0 0 1 0"/></filter></defs><mask id="Nepal_svg__b" width="28" height="20" x="0" y="4" maskUnits="userSpaceOnUse"><g filter="url(#Nepal_svg__a)"><rect width="28" height="20" y="4" fill="#FFF" rx="3"/><rect width="27.5" height="19.5" x=".25" y="4.25" stroke="#F5F5F5" stroke-width=".5" rx="2.75"/></g></mask><path fill="none" d="M0 0H28V28H0z"/><rect width="28" height="20" y="4" fill="#FFF" rx="3"/><rect width="27.5" height="19.5" x=".25" y="4.25" stroke="#D6D8DD" stroke-width=".5" rx="2.75"/><path fill="#FFF" fill-rule="evenodd" d="M0 6C0 4.89543 0.89543 4 2 4L2.46482 4C2.59643 4 2.7251 4.03896 2.83462 4.11197L15.0026 12.2239C16.1002 12.9557 15.5822 14.6667 14.263 14.6667L8 14.6667L15.9961 21.6632C16.9226 22.474 16.3492 24 15.1181 24L2 24C0.895428 24 0 23.1046 0 22L0 6Z"/><path d="M2.46482 4C2.59643 4 2.7251 4.03896 2.83462 4.11197L15.0026 12.2239C16.1002 12.9557 15.5822 14.6667 14.263 14.6667L8 14.6667L15.9961 21.6632C16.9226 22.474 16.3492 24 15.1181 24L2 24C0.89543 24 0 23.1046 0 22L0 6C0 4.89543 0.89543 4 2 4L2.46482 4Z"/><g mask="url(#Nepal_svg__c)"><path fill="#EE1B44" fill-rule="evenodd" d="M0 4L2.46482 4C2.59643 4 2.7251 4.03896 2.83462 4.11197L15.0026 12.2239C16.1002 12.9557 15.5822 14.6667 14.263 14.6667L8 14.6667L15.9961 21.6632C16.9226 22.474 16.3492 24 15.1181 24L0 24L0 4Z"/><path fill="#0543A8" fill-rule="evenodd" d="M10.0248 14.6667L14.263 14.6667C15.5822 14.6667 16.1002 12.9557 15.0026 12.2239L2.83462 4.11197C2.7251 4.03896 2.59643 4 2.46482 4L0 4L0 24L15.1181 24C16.3492 24 16.9226 22.474 15.9961 21.6632L9.52381 16L8 14.6667L10.0248 14.6667ZM1.33333 22.6667L15.1181 22.6667L7.12199 15.6701C6.97732 15.5435 6.86526 15.3927 6.78582 15.2176C6.70639 15.0426 6.66667 14.8589 6.66667 14.6667C6.66667 14.2985 6.79684 13.9842 7.05719 13.7239C7.31754 13.4635 7.63181 13.3333 8 13.3333L14.263 13.3333L2.26297 5.33333L1.33333 5.33333L1.33333 22.6667Z"/><path fill="#FFF" fill-rule="evenodd" d="M6.8511 11.8008C7.23521 11.6955 7.58932 11.5516 7.90252 11.3762C7.59187 12.5045 6.55836 13.3334 5.33126 13.3334C4.10417 13.3334 3.07066 12.5045 2.76001 11.3762C3.07407 11.552 3.42928 11.6963 3.81462 11.8017L4.33334 11.3334L3.48558 10.568L4.62624 10.6262L4.56798 9.4856L5.33334 10.3334L6.09871 9.4856L6.04045 10.6262L7.1811 10.568L6.33334 11.3334L6.8511 11.8008ZM5.33334 20L4.31285 21.1304L4.39053 19.6095L2.86966 19.6872L4.00001 18.6667L2.86966 17.6462L4.39053 17.7239L4.31285 16.203L5.33334 17.3334L6.35383 16.203L6.27615 17.7239L7.79702 17.6462L6.66668 18.6667L7.79702 19.6872L6.27615 19.6095L6.35383 21.1304L5.33334 20Z"/><path d="M6.8511 11.8008C7.23521 11.6955 7.58932 11.5516 7.90252 11.3762C7.59187 12.5045 6.55836 13.3334 5.33126 13.3334C4.10417 13.3334 3.07066 12.5045 2.76001 11.3762C3.07407 11.552 3.42928 11.6963 3.81462 11.8017L4.33334 11.3334L3.48558 10.568L4.62624 10.6262L4.56798 9.4856L5.33334 10.3334L6.09871 9.4856L6.04045 10.6262L7.1811 10.568L6.33334 11.3334L6.8511 11.8008ZM5.33334 20L4.31285 21.1304L4.39053 19.6095L2.86966 19.6872L4.00001 18.6667L2.86966 17.6462L4.39053 17.7239L4.31285 16.203L5.33334 17.3334L6.35383 16.203L6.27615 17.7239L7.79702 17.6462L6.66668 18.6667L7.79702 19.6872L6.27615 19.6095L6.35383 21.1304L5.33334 20Z"/></g></svg>

<svg xmlns="http://www.w3.org/2000/svg" fill="none" viewBox="0 0 28 28" focusable="false"><path fill="none" d="M0 0h28v28H0z"/><rect width="28" height="20" y="4" fill="#FFF" rx="3"/><rect width="27.5" height="19.5" x=".25" y="4.25" stroke="#D6D8DD" stroke-width=".5" rx="3"/><path fill="#FFF" fill-rule="evenodd" d="M0 6c0-1.11.89-2 2-2h.46c.13 0 .26.03.37.11L15 12.22c1.1.73.58 2.44-.74 2.44H8l7.99 7c.93.81.35 2.34-.88 2.34H2a2 2 0 0 1-2-2z"/><path d="M2.46 4c.13 0 .26.03.37.11L15 12.22c1.1.73.58 2.44-.74 2.44H8l7.99 7c.93.81.35 2.34-.88 2.34H2a2 2 0 0 1-2-2V6c0-1.11.89-2 2-2z"/><mask id="Nepal_svg__a" width="17.997" height="20" x="0" y="4" mask-type="alpha" maskUnits="userSpaceOnUse"><path fill="#FFF" fill-rule="evenodd" d="M0 6c0-1.11.89-2 2-2h.46c.13 0 .26.03.37.11L15 12.22c1.1.73.58 2.44-.74 2.44H8l7.99 7c.93.81.35 2.34-.88 2.34H2a2 2 0 0 1-2-2z"/><path stroke="#979797" stroke-opacity="0" stroke-width="0" d="M2.46 4c.13 0 .26.03.37.11L15 12.22c1.1.73.58 2.44-.74 2.44H8l7.99 7c.93.81.35 2.34-.88 2.34H2a2 2 0 0 1-2-2V6c0-1.11.89-2 2-2z"/></mask><g fill-rule="evenodd" mask="url(#Nepal_svg__a)"><path fill="#EE1B44" d="M0 4h2.46c.13 0 .26.03.37.11L15 12.22c1.1.73.58 2.44-.74 2.44H8l7.99 7c.93.81.35 2.34-.88 2.34H0z"/><path fill="#0543A8" d="M10.02 14.66h4.24c1.32 0 1.84-1.71.74-2.44L2.83 4.11A.6.6 0 0 0 2.46 4H0v20h15.11c1.23 0 1.81-1.53.88-2.34L9.52 16 8 14.66zm-8.69 8h13.78l-7.99-6.99q-.22-.19-.34-.46-.12-.26-.12-.55 0-.55.39-.94t.95-.39h6.26l-12-8h-.93z"/></g><g mask="url(#Nepal_svg__a)"><mask id="Nepal_svg__b" fill="#fff"><path fill-rule="evenodd" d="M6.851 11.8a4.7 4.7 0 0 0 1.052-.424 2.668 2.668 0 0 1-5.143 0c.314.176.67.32 1.055.426l.518-.469-.847-.765 1.14.058-.058-1.14.765.847.766-.847-.059 1.14 1.141-.058-.848.765zM5.333 20l-1.02 1.13.078-1.52-1.521.077L4 18.667l-1.13-1.02 1.52.077-.077-1.521 1.02 1.13 1.02-1.13-.077 1.52 1.521-.077-1.13 1.02 1.13 1.021-1.52-.078.077 1.521z" clip-rule="evenodd"/></mask><path fill="#FFF" fill-rule="evenodd" d="M6.851 11.8a4.7 4.7 0 0 0 1.052-.424 2.668 2.668 0 0 1-5.143 0c.314.176.67.32 1.055.426l.518-.469-.847-.765 1.14.058-.058-1.14.765.847.766-.847-.059 1.14 1.141-.058-.848.765zM5.333 20l-1.02 1.13.078-1.52-1.521.077L4 18.667l-1.13-1.02 1.52.077-.077-1.521 1.02 1.13 1.02-1.13-.077 1.52 1.521-.077-1.13 1.02 1.13 1.021-1.52-.078.077 1.521z" clip-rule="evenodd" mask="url(#Nepal_svg__b)"/></g></svg>
